X:14
T:The Galway Hornpipe
R:hornpipe
M:4/4
L:1/8
K:D
(3A,B,C | D2FA dAFD | CDEF G2FE | D2FA dcdf | (3efe (3dcB (3ABA (3GFE |
D2FA dAFD | CDEF G2FG | AdcB (3ABA (3GFE | (3DFA (3dAF D2 ::
de | fefg fedc | BABc B2cd | edef edcB | (3Ace (3aec A2 (3ABc |
dcde fdAF | GFGA BdcB | AdcB (3ABA (3GFE | (3DFA (3dAF D2 :|
